!!!COM: Joplin, Scott
!!!CDT: 1868/11/24/-1917/04/01/
!!!OTL: Gladiolus Rag
!!!ODT: 1907///
**kern	**kern	**dynam
*staff2	*staff1	*staff1/2
*Ipiano	*Ipiano	*Ipiano
*>[I,A,A1,A,A2,B,B1,B,B2,C,D,D1,D,D2,E,E1,E,E2]	*>[I,A,A1,A,A2,B,B1,B,B2,C,D,D1,D,D2,E,E1,E,E2]	*>[I,A,A1,A,A2,B,B1,B,B2,C,D,D1,D,D2,E,E1,E,E2]
*>I	*>I	*>I
*clefF4	*clefG2	*clefG2
*k[b-e-a-d-]	*k[b-e-a-d-]	*k[b-e-a-d-]
*M2/4	*M2/4	*M2/4
*MM90	*MM90	*MM90
8EE-/ 8E-/	8r	.
=1!|:	=1!|:	=1!|:
*>A	*>A	*>A
8AA-\ 8A-\L	16r	.
.	16ccc\LL	mf
8E-\ 8A-\ 8c\J	16aa-\	.
.	16ff\JJ	.
8EE-\ 8E-\L	16ddn\LL	.
.	16ee-\	.
8E-\ 8A-\ 8c\J	16a-\	.
.	16b-\JJ	.
=2	=2	=2
*	*^	*
8FF/ (8F/L	(16cc-/LL	8.dn\L	.
.	16g/	.	.
8FF-/ 8F-/J	16a-/	.	.
.	[16b-/JJ	[16d-\ 16g\Jk	.
8EE-\ 8E-\L)	16b-/LL])	8d-\] 8g\	.
.	(16ee-/	.	.
8E-\ 8G\ 8d-\J	16eee-/	8r	.
.	16ddd-/JJ)	.	.
*	*v	*v	*
=3	=3	=3
8AA-\ 8A-\L	16r	.
.	16ccc\LL	.
8E-\ 8A-\ 8c\J	16aa-\	.
.	16ff\JJ	.
8EE-\ 8E-\L	16ddn\LL	.
.	16ee-\	.
8E-\ 8A-\ 8c\J	16a-\	.
.	16b-\JJ	.
=4	=4	=4
*	*^	*
(8FF/ 8F/L	(16cc-/LL	8.dn\L	.
.	16g/	.	.
8FF-/ 8F-/J	16a-/	.	.
.	16b-/JJ	[16d-\ 16g\Jk	.
8EE-/) 8E-/L	8d-/] 8g/ 8b-/L)	4r	.
(16BB-/L	(16B-/L	.	.
16C/JJ)	16c/JJ)	.	.
*	*v	*v	*
=5	=5	=5
(8FF\L	(8F/L	.
8f\J	[8g/ [8b-/ 8dd-/J	.
8en\L)	8g/]) 8b-/] 8cc/L	.
(16BB-\L	(16B-/L	.
16C\JJ)	16c/JJ)	.
=6	=6	=6
(8FF\L	(8F/L	.
8d-\	[8g/ [8b-/ 8ff/	.
8c\J)	8g/]) 8b-/] 8ee-/J	.
8r	8r	.
=7	=7	=7
*^	*	*
16FF/LL	(16FFF\LL	2r	.
16GG/	16GGG\	.	.
16AA-/	16AAA-\	.	.
16C/JJ	(16CC\JJ)	.	.
&(16F/LL&)	16FF\LL	.	.
16G/	16GG\	.	.
16A-/	16AA-\	.	.
&(16c/JJ&)	16C\JJ)	.	.
*v	*v	*	*
=8	=8	=8
(16F\LL	(16f/LL	.
16G\	16g/	.
16A-\	16a-/	.
16c\JJ)	16cc/JJ)	.
*clefG2	*	*
(16f/LL	(16ff\LL	.
16g/	16gg\	.
16a-/	16aa-\	.
16cc/JJ)	16ccc\JJ)	.
=9	=9	=9
8dn/ 8f/ 8a-/ 8bn/L	8ff\ 8fff\L	.
8d/ 8f/ 8a-/ 8b/J	16gg\ 16ggg\L	.
.	[16ff\ [16fff\JJ	.
8d/ 8f/ 8a-/ 8b/L	16ff\] 16fff\LL]	.
.	16gg\ 16ggg\	.
8d/ 8f/ 8a-/ 8b/J	16ff\ 16fff\	.
.	[16ff\ ([16fff\JJ	.
=10	=10	=10
8e-/ 8a-/ 8cc/L	16ff\] 16fff\LL]	.
.	16eee-\	.
8e-/ 8a-/ 8cc/J	16ccc\	.
.	16bb-\JJ)	.
8g-/ 8a-/ 8cc/L	16aa-\LK	.
.	8eee-\	.
8g-/ 8a-/ 8cc/J	.	.
.	([16ddd-\Jk	.
=11	=11	=11
8f/ 8a-/ 8dd-/L	16ddd-\LL]	.
.	16bb-\	.
8f-/ 8a-/ 8dd-/J	16bbb-\	.
.	16aaa-\JJ)	.
8e-/ 8a-/ 8cc/L	16aa-\LK	.
.	8ccc\	.
8e-/ 8a-/ 8cc/J	.	.
.	16fff\Jk	.
=12	=12	=12
8e-/ 8g/ 8dd-/L	(16eee-\LL	.
.	16bb-\	.
8e-/ 8g/ 8dd-/J	16bbn\	.
.	[16ccc\JJ	.
8e-/ 8a-/ 8cc/L	16ccc\LL])	.
.	(16ddn\	.
8e-/ 8a-/ 8cc/J	16ee-\)	.
.	[16f\ [16ff\JJ	.
*clefF4	*	*
=13	=13	=13
8Dn\ 8F\ 8A-\ 8Bn\L	8f\] 8ff\L]	.
8D\ 8F\ 8A-\ 8B\J	16g\ 16gg\L	.
.	[16f\ [16ff\JJ	.
8D\ 8F\ 8A-\ 8B\L	16f\] 16ff\LL]	.
.	16g\ 16gg\	.
8D\ 8F\ 8A-\ 8B\J	16f\ 16ff\	.
.	[16f\ ([16ff\JJ	.
=14	=14	=14
8E-\ 8A-\ 8c\L	16f\] 16ff\LL]	.
.	16ee-\	.
8E-\ 8A-\ 8c\J	16cc\	.
.	16b-\JJ)	.
8G-\ 8A-\ 8c\L	16a-\LK	.
.	8ee-\	.
8G-\ 8A-\ 8c\J	.	.
.	([16dd-\Jk	.
=15	=15	=15
8F\ 8A-\ 8d-\L	16dd-\LL]	.
.	16b-\	.
8F-\ 8A-\ 8d-\J	16bb-\	.
.	16aa-\JJ)	.
8E-\ 8A-\ 8c\L	16cc\LK	.
.	8a-\ 8ff\	.
8E-\ 8A-\ 8c\J	.	.
.	16ee-\Jk	.
=16	=16	=16
*>A1	*>A1	*>A1
*	*^	*
8FF/ 8F/L	(16a-/LL	8dn\L	.
.	16b-/J	.	.
8EE-/ 8E-/J	8g/ 8b-/J)	8d-\J	.
8AA-/ 8A-/L	8c/ 8a-/	4r	.
8EE-/ 8E-/J	8r	.	.
=17:|!	=17:|!	=17:|!	=17:|!
*	*v	*v	*
*>A2	*>A2	*>A2
*	*^	*
8FF/ 8F/L	(16a-/LL	8dn\L	.
.	16b-/J)	.	.
8EE-/ 8E-/J	8g/ 8b-/J	8d-\J	.
8AA-\ 8A-\L	8c/ 8a-/L	4r	.
8AAn\ 8An\J	8ee-/J	.	.
*	*v	*v	*
=18!|:	=18!|:	=18!|:
*>B	*>B	*>B
8BB-\ 8B-\L	16r	.
.	(16gg\LL	f
8E-\ 8G\ 8d-\J	16bb-\	.
.	16ddd-\JJ)	.
8EE-\ 8E-\L	16gg\ 16fff\LK	.
.	8eee-\	.
8E-\ 8G\ 8d-\J	.	.
.	16ddd-\Jk	.
=19	=19	=19
8GG\ 8G\L	(16ee-\LL	.
.	16gg\	.
8E-\ 8G\ 8d-\J	16bb-\	.
.	[16ee-\ [16gg\ [16eee-\JJ	.
8EE-\ 8E-\L	16ee-\] 16gg\] 16eee-\LL])	.
.	16g\ 16dd-\ 16gg\	.
8E-\ 8G\ 8d-\J	16a-\ 16dd-\ 16aa-\	.
.	16b-\ 16dd-\ 16bb-\JJ	.
=20	=20	=20
8AA-\ 8A-\L	16bn\ 16ddn\ 16bbn\LK	.
.	8cc\ 8ee-\ 8ccc\	.
8E-\ 8A-\ 8c\J	.	.
.	16b\ 16dd\ 16bb\Jk	.
8EE-\ 8E-\L	8cc\ 8ee-\ 8ccc\L	.
8E-\ 8A-\ 8c\J	16b\ 16dd\ 16bb\L	.
.	[16cc\ [16ee-\ [16ccc\JJ	.
=21	=21	=21
16AA-\ 16A-\LL	4.cc\] 4.ee-\] 4.ccc\]	.
16GG\ 16G\	.	.
16AA-\ 16A-\	.	.
16C\ 16c\JJ	.	.
8E-\ 8e-\L	.	.
8AAn\ 8An\J	8cc\ 8ee-\	>
=22	=22	=22
8BB-\ 8B-\L	16dd-\ 16ff-\LK	mf
.	8dd-\ 8ffn\	.
8E-\ 8G\ 8d-\J	.	.
.	[16b-\ [16dd-\Jk	.
16EE-/ 16E-/LL	4b-\] 4dd-\]	.
16EEn/ 16En/	.	.
16FF/ 16F/	.	.
16FF#/ 16F#/JJ	.	.
=23	=23	=23
8GG\ 8G\L	16dd-\ 16ff-\LK	.
.	8dd-\ 8ffn\	.
8E-\ 8G\ 8d-\J	.	.
.	[16b-\ [16dd-\Jk	.
16EE-/ 16E-/LL	4b-\] 4dd-\]	.
16EEn/ 16En/	.	.
16FF/ 16F/	.	.
16GG/ 16G/JJ	.	.
=24	=24	=24
8AA-\ 8A-\L	16cc\ 16een\LK	.
.	8cc\ 8ff\	.
8E-\ 8A-\ 8c\J	.	.
.	16gg\Jk	.
8EE-\ 8E-\L	16cc\ 16ff\LL	.
.	(16cc\	.
8E-\ 8A-\ 8c\J	16ee-\	.
.	16aa-\JJ	.
=25	=25	=25
16AA-/ 16A-/LL	2cc\ 2ee-\ 2ccc\)	<
16EE-/ 16E-/	.	.
16EEn/ 16En/	.	.
16FF/ 16F/JJ	.	.
16FF#/ 16F#/LL	.	.
16GG/ 16G/	.	.
16AA-/ 16A-/	.	.
16AAn/ 16An/JJ	.	.
=26	=26	=26
8BB-\ 8B-\L	16r	.
.	(16gg\LL	f
8E-\ 8G\ 8d-\J	16bb-\	.
.	16ddd-\JJ)	.
8EE-\ 8E-\L	16gg\ 16fff\LK	.
.	8eee-\	.
8E-\ 8G\ 8d-\J	.	.
.	16ddd-\Jk	.
=27	=27	=27
8GG\ 8G\L	(16ee-\LL	.
.	16gg\	.
8E-\ 8G\ 8d-\J	16bb-\	.
.	[16ee-\ [16gg\ [16eee-\JJ	.
8EE-\ 8E-\L	16ee-\] 16gg\] 16eee-\LL])	.
.	16g\ 16dd-\ 16gg\	.
8E-\ 8G\ 8d-\J	16a-\ 16dd-\ 16aa-\	.
.	16b-\ 16dd-\ 16bb-\JJ	.
=28	=28	=28
8AA-\ 8A-\L	16bn\ 16ddn\ 16bbn\LK	.
.	8cc\ 8ee-\ 8ccc\	.
8E-\ 8A-\ 8c\J	.	.
.	[16cc\ [16een\ [16ccc\Jk	.
8GG\ 8G\L	16cc\] 16ee\] 16ccc\LL]	.
.	16ee\ 16gg\J	.
8F-\ 8B-\ 8c\J	8cc\ 8ee\ 8gg\ 8ccc\J	.
=29	=29	=29
8FF\ 8F\L	8cc\ 8ff\ 8aa-\ 8ccc\L	.
8F\ 8A-\ (8c\J	16cc\ 16ccc\L	.
.	16ff\JJ	.
8FF/ 8F/L	16aa-\LK	.
.	8cc\ 8ff\ 8aa-\ 8ccc\	.
8EE-/ 8E-/J)	.	.
.	[16dd-\ [16ff\ [16ccc\Jk	.
=30	=30	=30
8DD-\ (8D-\L	8.dd-\] 8.ff\] 8.ccc\L]	.
8F\ 8A-\ 8d-\J	.	.
.	16bb-\Jk	.
8FF/ 8F/L	16aa-\LL	.
.	16ff\J	.
8FF-/ 8F-/J)	8dd-\J	.
=31	=31	=31
8EE-\ 8E-\L	8.cc\ 8.ee-\ 8.ccc\L	.
8E-\ 8A-\ 8c\J	.	.
.	(16bb-\Jk	.
8C\ 8c\L	16aa-\LL	.
.	16ee-\J	.
8AAn\ 8An\J	8cc\J)	.
=32	=32	=32
8BB-\ 8B-\L	16dd-\ 16een\LK	.
.	8dd-\ 8ff\	.
8E-\ 8G\ 8d-\J	.	.
.	16gg\Jk	.
8EE-\ 8E-\L	16dd-\ (16ff\LL	.
.	16g\	.
8E-\ 8G\ 8d-\J	16b-\	.
.	16ee-\JJ)	.
=33	=33	=33
*>B1	*>B1	*>B1
*^	*	*
4.c/	8A-\L	4.a-/	.
.	8EE-\ 8E-\J	.	.
.	8AA-\ 8A-\L	.	.
8r	8AAn\ 8An\J	8ee-\	.
*v	*v	*	*
=34:|!	=34:|!	=34:|!
*>B2	*>B2	*>B2
8A-\ 8c\	8a-\L	.
.	(dd-q/	.
8r	8ee-\J)	.
8e-\L	4r	.
8EE-\ 8E-\J	.	.
=35	=35	=35
*>C	*>C	*>C
8AA-\ 8A-\L	16r	.
.	16ccc\LL	mf
8E-\ 8A-\ 8c\J	16aa-\	.
.	16ff\JJ	.
8EE-\ 8E-\L	16ddn\LL	.
.	16ee-\	.
8E-\ 8A-\ 8c\J	16a-\	.
.	16b-\JJ	.
=36	=36	=36
*	*^	*
8FF/ (8F/L	(16cc-/LL	8.dn\L	.
.	16g/	.	.
8FF-/ 8F-/J	16a-/	.	.
.	[16b-/JJ	[16d-\ [16g\Jk	.
8EE-\ 8E-\L)	16b-/LL])	8d-\] 8g\]	.
.	(16ee-/	.	.
8E-\ 8G\ 8d-\J	16eee-/	8r	.
.	16ddd-/JJ)	.	.
*	*v	*v	*
=37	=37	=37
8AA-\ 8A-\L	16r	.
.	16ccc\LL	.
8E-\ 8A-\ 8c\J	16aa-\	.
.	16ff\JJ	.
8EE-\ 8E-\L	16ddn\LL	.
.	16ee-\	.
8E-\ 8A-\ 8c\J	16a-\	.
.	16b-\JJ	.
=38	=38	=38
*	*^	*
(8FF/ 8F/L	(16cc-/LL	8.dn\L	.
.	16g/	.	.
8FF-/ 8F-/J	16a-/	.	.
.	[16b-/JJ	[16d-\ 16g\Jk	.
8EE-/) 8E-/L	8d-/] 8g/ 8b-/L])	4r	.
(16BB-/L	(16B-/L	.	.
16C/JJ)	16c/JJ)	.	.
*	*v	*v	*
=39	=39	=39
(8FF\L	(8F/L	.
8f\J	[8g/ [8b-/ 8dd-/J	.
8en\L)	8g/]) 8b-/] 8cc/L	.
(16BB-\L	(16B-/L	.
16C\JJ)	16c/JJ)	.
=40	=40	=40
(8FF\L	(8F/L	.
8d-\	[8g/ [8b-/ 8ff/	.
8c\J)	8g/]) 8b-/] 8een/J	.
8r	8r	.
=41	=41	=41
*^	*	*
(16FF/LL	16FFF\LL	2r	.
16GG/	16GGG\	.	.
16AA-/	16AAA-\	.	.
16C/JJ	&(16CC\JJ&)	.	.
(16F/LL)	16FF\LL	.	.
16G/	16GG\	.	.
16A-/	16AA-\	.	.
16c/JJ)	&(16C\JJ&)	.	.
*v	*v	*	*
=42	=42	=42
(16F\LL	(16f/LL	.
16G\	16g/	.
16A-\	16a-/	.
16c\JJ)	16cc/JJ)	.
*clefG2	*	*
(16f/LL	(16ff\LL	.
16g/	16gg\	.
16a-/	16aa-\	.
16cc/JJ)	16ccc\JJ)	.
=43	=43	=43
8dn/ 8f/ 8a-/ 8bn/L	8ff\ 8fff\L	.
8d/ 8f/ 8a-/ 8b/J	16gg\ 16ggg\L	.
.	[16ff\ [16fff\JJ	.
8d/ 8f/ 8a-/ 8b/L	16ff\] 16fff\LL]	.
.	16gg\ 16ggg\	.
8d/ 8f/ 8a-/ 8b/J	16ff\ 16fff\	.
.	[16ff\ ([16fff\JJ	.
=44	=44	=44
8e-/ 8a-/ 8cc/L	16ff\] 16fff\LL]	.
.	16eee-\	.
8e-/ 8a-/ 8cc/J	16ccc\	.
.	16bb-\JJ	.
8g-/ 8a-/ 8cc/L	16aa-\LK)	.
.	8eee-\	.
8g-/ 8a-/ 8cc/J	.	.
.	([16ddd-\Jk	.
=45	=45	=45
8f/ 8a-/ 8dd-/L	16ddd-\LL]	.
.	16bb-\	.
8f-/ 8a-/ 8dd-/J	16bbb-\	.
.	16aaa-\JJ)	.
8e-/ 8a-/ 8cc/L	16aa-\LK	.
.	8ccc\	.
8e-/ 8a-/ 8cc/J	.	.
.	16fff\Jk	.
=46	=46	=46
8e-/ 8g/ 8dd-/L	(16eee-\LL	.
.	16bb-\	.
8e-/ 8g/ 8dd-/J	16bbn\	.
.	[16ccc\JJ	.
8e-/ 8a-/ 8cc/L	16ccc\LL])	.
.	(16ddn\	.
8e-/ 8a-/ 8cc/J	16ee-\	.
.	[16f\ [16ff\JJ	.
*clefF4	*	*
=47	=47	=47
8Dn\ 8F\ 8A-\ 8Bn\L	8f\] 8ff\L])	.
8D\ 8F\ 8A-\ 8B\J	16g\ 16gg\L	.
.	[16f\ [16ff\JJ	.
8D\ 8F\ 8A-\ 8B\L	16f\] 16ff\LL]	.
.	16g\ 16gg\	.
8D\ 8F\ 8A-\ 8B\J	16f\ 16ff\	.
.	[16f\ ([16ff\JJ	.
=48	=48	=48
8E-\ 8A-\ 8c\L	16f\] 16ff\LL]	.
.	16ee-\	.
8E-\ 8A-\ 8c\J	16cc\	.
.	16b-\JJ	.
8G-\ 8A-\ 8c\L	16a-\LK)	.
.	8ee-\	.
8G-\ 8A-\ 8c\J	.	.
.	([16dd-\Jk	.
=49	=49	=49
8F\ 8A-\ 8d-\L	16dd-\LL]	.
.	16b-\	.
8F-\ 8A-\ 8d-\J	16bb-\	.
.	16aa-\JJ)	.
8E-\ 8A-\ 8c\L	16cc\LK	.
.	8a-\ 8ff\	.
8E-\ 8A-\ 8c\J	.	.
.	16ee-\Jk	.
=50	=50	=50
*	*^	*
8FF/ 8F/L	(16a-/LL	8dn\L	.
.	16b-/J)	.	.
8EE-/ 8E-/J	8g/ 8b-/J	8d-\J	.
8AA-\ 8A-\	8c/ 8a-/	8r	.
*	*v	*v	*
=	=	=
*k[b-e-a-d-g-]	*k[b-e-a-d-g-]	*k[b-e-a-d-g-]
8r	8a-\ 8aa-\	.
=51!|:	=51!|:	=51!|:
*>D	*>D	*>D
8DD-\ 8D-\L	16a-\ 16dd-\ 16ff\ 16aa-\LL	mp
.	16dd-\	.
8F\ 8A-\ 8d-\J	16ff\	.
.	[16b-\ [16dd-\ [16gg-\ [16bb-\JJ	.
8GG-\ 8G-\L	16b-\] 16dd-\] 16gg-\] 16bb-\LL]	.
.	16cc\ 16ccc\	.
8G-\ 8B-\ 8d-\J	16dd-\ 16ddd-\	.
.	16ee-\ 16eee-\JJ	.
=52	=52	=52
8DD-\ 8D-\L	16ff\ (16fff\LL	.
.	16aa-\ 16aaa-\	.
8F\ 8A-\ 8d-\J	16ff\ 16fff\	.
.	16ee-\ 16eee-\JJ	.
8FF\ 8F\L	16dd-\ 16ddd-\LL	.
.	16b-\ 16bb-\	.
8F\ 8A-\ 8d-\J	16a-\ 16aa-\	.
.	16f\ 16ff\JJ)	.
=53	=53	=53
*	*^	*
8AAA-/ 8AA-/L	16ff/LK	8.g-\ 8.cc\L	.
.	8ee-/	.	.
8G-/ 8A-/ 8c/J	.	.	.
.	16g-/Jk	[16g-\Jk	.
8CC/ 8C/L	16g-/LL]	8g-\L	.
.	16ff/J	.	.
8G-/ 8A-/ 8c/J	8ee-/J	8g-\ 8cc\J	.
=54	=54	=54	=54
8DD-\ 8D-\L	16ee-/LK	8.f\ 8.a-\L	.
.	8dd-/	.	.
8F\ 8A-\ 8d-\J	.	.	.
.	[16f/Jk	[16f\Jk	.
8DD-/ 8D-/L	16f/LL]	8f\L]	.
.	16ee-/J	.	.
8BBB-/ 8BB-/J	8dd-/J	8f\ 8b-\J	.
=55	=55	=55	=55
8CC/ 8C/L	(16cc/LL	8.f\ 8.a-\L	.
.	16a-/	.	.
8F/ 8A-/ 8c/J	16cc/	.	.
.	[16dd-/JJ	[16en\ 16b-\Jk	.
8GGn/ 8Gn/L	16e/] 16b-/ 16dd-/LL])	4r	.
.	16e/J	.	.
8CC/ 8C/J	8e/ 8b-/ 8cc/J	.	.
=56	=56	=56	=56
8FF\ 8F\L	(16cc/LL	8.f\ 8.a-\L	.
.	16a-/	.	.
8E-\ 8e-\J	16cc/	.	.
.	[16bn/JJ	16a-\Jk	.
8Dn\ 8dn\L	&(8f/&) 8a-/ 8b/L])	4r	.
8D-\ 8d-\J	8f/ 8a-/ 8b-/J	.	.
=57	=57	=57	=57
8C\ 8c\L	(16a-/LL	8e-\L	.
.	16ee-/J	.	.
8C-\ 8c-\J	8ff-/J)	8a-\ 8cc\J	.
8BB-\ 8B-\L	8gn/ 8dd-/ 8ff-/L	4r	.
8BB--\ 8B--\J	8g-/ 8dd-/ 8ee-/J	.	.
*	*v	*v	*
=58	=58	=58
8AA-\ 8A-\L	8g-\ 8ccn\ 8ee-\L	.
8GG-\ 8G-\J	16a-\ 16cc\ 16ee-\ 16aa-\L	.
.	16a-\JJ	.
8FF/ 8F/L	16cc\LK	.
.	8a-\ 8cc\ 8ee-\ 8aa-\	.
8EE-/ 8E-/J	.	.
.	16a-\ 16dd-\ 16ff\ [16aa-\Jk	.
=59	=59	=59
8DD-\ 8D-\L	16a-\ 16dd-\ 16ff\ 16aa-\LL]	.
.	16dd-\	.
8F\ 8A-\ 8d-\J	16ff\	.
.	[16b-\ [16dd-\ 16gg-\ [16bb-\JJ	.
8GG-\ 8G-\L	16b-\] 16dd-\] 16gg-\ 16bb-\LL]	.
.	16cc\ 16ccc\	.
8G-\ 8B-\ 8d-\J	16dd-\ 16ddd-\	.
.	16ee-\ 16eee-\JJ	.
=60	=60	=60
8DD-\ 8D-\L	16ff\ (16fff\LL	.
.	16aa-\ 16aaa-\	.
8F\ 8A-\ 8d-\J	16ff\ 16fff\	.
.	16ee-\ 16eee-\JJ	.
8FF\ 8F\L	16dd-\ 16ddd-\LL	.
.	16b-\ 16bb-\	.
8F\ 8A-\ 8d-\J	16a-\ 16aa-\	.
.	16f\ 16ff\JJ)	.
=61	=61	=61
8FF\ 8F\L	16f\LK	<
.	8an\ 8cc\ 8ff\	.
8F\ 8An\ 8c\ 8e-\J	.	.
.	16f\Jk	.
8C\ 8c\L	8a\ 8cc\ 8ff\L	.
8F\ 8A\ 8c\ 8e-\J	16f\L	.
.	[16b-\ [16dd-\ [16ff\JJ	.
=62	=62	=62
8BB-\ 8B-\L	16b-\] 16dd-\] 16ff\LL]	<
.	16an\ 16aan\	.
8F\ 8B-\ 8d-\J	16b-\ 16bb-\	.
.	16cc\ 16ccc\JJ	.
8BB-\ 8B-\L	16dd-\ 16ddd-\LL	.
.	16ee-\ 16eee-\J	.
8AA-\ 8A-\J	8ff\ 8ccc-\ 8fff\J	.
=63	=63	=63
8GG-\ 8G-\L	8.gg-\ 8.bb-\ 8.fff\L	mf
8B-\ 8d-\ 8g-\J	.	.
.	(16eee-\Jk	.
8BB-\ 8B-\L	16ddd-\LL	.
.	16bb-\J	.
8BB--\ 8B--\J	8gg-\J)	.
=64	=64	=64
8AA-\ 8A-\L	8.ff\ 8.aa-\ 8.fff\L	.
8A-\ 8d-\ 8f\J	.	.
.	(16eee-\Jk	.
8FF/ 8F/L	16ddd-\LL	.
.	16aa-\J	.
8AA-/ 8A-/J	8ff\J)	.
=65	=65	=65
*	*^	*
8AAA-/ 8AA-/L	16ff/LK	8.g-\ 8.cc\L	.
.	8ee-/	.	.
8G-/ 8A-/ 8c/J	.	.	.
.	16g-/Jk	[16g-\Jk	.
8AAA-/ 8AA-/L	16g-/LL	8g-\L]	.
.	16ff/J	.	.
8G-/ 8A-/ 8c/J	8ee-/J	8g-\ 8cc\J	.
*	*v	*v	*
=66	=66	=66
*>D1	*>D1	*>D1
8DD-/ 8D-/L	4f/ 4a-/ 4dd-/	.
16AA-/ 16A-/L	.	.
[16BB-/ [16B-/JJ	.	.
16BB-/] 16B-/LL]	4a-\ 4cc\ 4ee-\ 4aa-\	.
16AA-/ 16A-/	.	.
16GG-/ 16G-/	.	.
16EE-/ 16E-/JJ	.	.
=67:|!	=67:|!	=67:|!
*>D2	*>D2	*>D2
8DD-\ 8D-\L	4.f/ 4.a-/ 4.dd-/	<
8D-\ 8d-\J	.	.
8C\ 8c\L	.	.
8C-\ 8c-\J	8dd-\ 8ff\ 8aa-\ 8ddd-\	.
=68!|:	=68!|:	=68!|:
*>E	*>E	*>E
*	*^	*
8BB-\ 8B-\L	8.ddd-/L	16ddd-\LK	f
.	.	8dd-\ 8gg-\ 8bb-\	.
8B-\ 8d-\ 8g-\J	.	.	.
.	16ddd-/Jk	[16ddd-\Jk	.
8GG-\ 8G-\L	8ddd-/L]	8ee-\ 8gg-\ 8bb-\L	.
8AAn\ 8An\J	8ddd-/J	(16ddd-\L	.
.	.	[16ff\ [16gg-\ [16bb-\JJ	.
=69	=69	=69	=69
8BB-\ 8B-\L	16ddd-/LK)	16ff\] 16gg-\] 16bb-\LL]	.
.	8.ddd-/J	16ddd-\J	.
8B-\ 8d-\ 8g-\J	.	8ee-\ 8gg-\ 8bb-\J	.
8BB-\ 8B-\L	8ddd-/L	8dd-\ 8gg-\ 8bb-\L	.
8GG-\ 8G-\J	8bb-/J	8b-\ 8dd-\ 8gg-\J	.
=70	=70	=70	=70
8FF\ 8F\L	8.aa-/L	16aa-\LK	.
.	.	8a-\ 8dd-\ 8ff\	.
8A-\ 8d-\ 8f\J	.	.	.
.	16aa-/Jk	[16aa-\Jk	.
8A-/ 8d-/ 8f/L	8aa-/L]	8b-\ 8dd-\ 8ff\	.
8AAA-/ 8AA-/J	8aa-/J	(16aa-\	.
.	.	[16cc\ [16dd-\ [16ff\	.
=71	=71	=71	=71
8DD-\ 8D-\L	16aa-/LK)	8cc\] 8dd-\] 8ff\L]	.
.	8.aa-/J	.	.
8A-\ 8d-\ 8f\J	.	8b-\ 8dd-\ 8ff\J	.
8FF/ 8F/L	8aa-/L	8a-\ 8dd-\ 8ff\L	.
8EEn/ 8En/J	8ggn/J	8gn\ 8b-\ 8dd-\J	.
=72	=72	=72	=72
8EE-\ 8E-\L	8.gg-/L	16gg-\LK	.
.	.	8g-\ 8cc\ 8ee-\	.
8A-\ 8c\ 8e-\J	.	.	.
.	16gg-/Jk	[16gg-\Jk	.
8AAA-/ 8AA-/L	8gg-/L]	8a-\ 8cc\ 8ee-\L	.
8DDn/ 8Dn/J	8gg-/J	(16gg-\L	.
.	.	[16b-\ [16cc\ [16ee-\JJ	.
=73	=73	=73	=73
8EE-\ 8E-\L	16gg-/LK)	8b-\] 8cc\] 8ee-\L]	.
.	8.gg-/J	.	.
8A-\ 8c\ 8e-\J	.	8a-\ 8cc\ 8ee-\J	.
8AA-\ 8A-\L	8gg-/L	8g-\ 8cc\ 8ee-\L	.
8GG-\ 8G-\J	8eee-/J	8ee-\ 8aa-\ 8ccc\J	.
*	*v	*v	*
=74	=74	=74
8FF\ 8F\L	16ee-\ 16aa-\ 16eee-\LK	.
.	8dd-\ 8aa-\ 8ddd-\	.
8A-\ 8d-\ 8f\J	.	.
.	[16dd-\ [16een\ [16ccc\Jk	.
(16Gn\LL	8dd-\] 8ee\] 8ccc\L]	.
16B-\	.	.
16d-\	8dd-\ 8ee\ 8bb-\J	.
16en\JJ)	.	.
=75	=75	=75
8f\L	4.dd-\ 4.ff\ 4.aa-\	.
8D-\ 8d-\J	.	.
8C\ 8c\L	.	.
8C-\ 8c-\J	8dd-\ 8ff\ 8aa-\ 8ddd-\	.
=76	=76	=76
*	*^	*
8BB-\ 8B-\L	8.ddd-/L	16ddd-\LK	.
.	.	8dd-\ 8gg-\ 8bb-\	.
8B-\ 8d-\ 8g-\J	.	.	.
.	16ddd-/Jk	[16ddd-\Jk	.
8GG-\ 8G-\L	8ddd-/L]	8ee-\ 8gg-\ 8bb-\L	.
8AAn\ 8An\J	8ddd-/J	(16ddd-\L	.
.	.	[16ff\ [16gg-\ [16bb-\JJ	.
=77	=77	=77	=77
8BB-\ 8B-\L	16ddd-/LK)	16ff\] 16gg-\] 16bb-\LL]	.
.	8.ddd-/J	16ddd-\J	.
8B-\ 8d-\ 8g-\J	.	8ee-\ 8gg-\ 8bb-\J	.
8BB-\ 8B-\L	8ddd-/L	8dd-\ 8gg-\ 8bb-\L	.
8GG-\ 8G-\J	8bb-/J	8b-\ 8dd-\ 8gg-\J	.
=78	=78	=78	=78
8FF\ 8F\L	8.aa-/L	16aa-\LK	.
.	.	8a-\ 8dd-\ 8ff\	.
8A-\ 8d-\ 8f\J	.	.	.
.	16aa-/Jk	[16aa-\Jk	.
8A-/ 8d-/ 8f/L	8aa-/L]	8b-\ 8dd-\ 8ff\	.
8AAA-/ 8AA-/J	[8aa-/J	16aa-\	.
.	.	[16cc\ [16dd-\ [16ff\	.
=79	=79	=79	=79
8DD-\ 8D-\L	16aa-/LK]	16cc\] 16dd-\] 16ff\LL]	.
.	8.aa-/J	16aa-\J	.
8A-\ 8d-\ 8f\J	.	8b-\ 8dd-\ 8ff\J	.
8FF/ 8F/L	8aa-/L	8a-\ 8dd-\ 8ff\L	.
8AA-/ 8A-/J	8ff/J	8f\ 8a-\ 8dd-\J	.
=80	=80	=80	=80
8BB--\ 8B--\L	16r	4r	.
.	(16dd-/LL	.	.
8F-\ 8B--\ 8d-\J	16f-/	.	.
.	16b--/JJ)	.	.
8AA-\ 8A-\L	8.ff-/L	16ff-\LK	.
.	.	8f-\ 8a-\ 8cc-\	.
8F-\ 8A-\ 8c-\J	.	.	.
.	([16dd-/Jk	16dd-\Jk	.
*	*v	*v	*
=81	=81	=81
8BB--\ 8B--\L	16dd-\LL]	.
.	16f-\	.
8F-\ 8B--\ 8d-\J	16b--\	.
.	16ff-\JJ	.
(16AA-\LL	4fn\ 4a-\ 4dd-\ 4ffn\)	.
16D-\	.	.
16Fn\	.	.
16A-\JJ)	.	.
=82	=82	=82
*	*^	*
8AA-\L	16ff/LK	8.g-\ 8.cc\L	.
.	8ee-/	.	.
8G-\ 8A-\ 8c\J	.	.	.
.	16g-/Jk	16g-\Jk	.
8AAA-/ 8AA-/	16g-/LL	8g-\	.
.	16ff/J	.	.
8G-/ 8A-/ 8c/	8ee-/J	8g-\ 8cc\	.
*	*v	*v	*
=83	=83	=83
*>E1	*>E1	*>E1
8DD-\ 8D-\L	4.f/ 4.a-/ 4.dd-/	.
8D-\ 8d-\J	.	.
8C\ 8c\L	.	.
8C-\ 8c-\J	8dd-\ 8ff\ 8aa-\ 8ddd-\	.
=84:|!	=84:|!	=84:|!
*>E2	*>E2	*>E2
8DD-/ 8D-/L	4f/ 4a-/ 4dd-/	.
(GG-q/	.	.
8AA-/)	.	.
8DD-/J	8dd-\ 8ff\ 8aa-\ 8ddd-\	.
==	==	==
*-	*-	*-
!!!ENC: Craig Stuart Sapp
!!!END: 2004/11/28/
